!!!OTL: 11. Dobranoch
!!!Genre:	Dobranoch
!!!Mode:	Minor
!!!Listening/dance:	listening
!!!One_Mode:	no
!!!Orig_tonic: A
**kern
*thru
*I"P1
*clefG2
*k[b-e-]
*B-:
!LO:TX:a:i:t=Bb-major
(4f
=9
2b-
4cc
=10
2dd
4ee-
=11
2.ff
=12
2.ff)
=13
(4ff
4dd
12ee-L
12dd
12ccJ
=14
4cc
4dd
12ee-L
12dd
12ccJ
=15
2.dd
=16
2.dd)
!!!End-Modulation
!!!Begin-Modulation
*B-:
!LO:TX:a:i:t=Bb-major
=21
4cc
4ff
4een
=22
4.ff
8ee-X
8ddL
8ccJ
=23
4b-
4cc
8ddL
8ccJ
=24
2.b-
!!!End-Modulation
!!!Begin-Modulation
*B-:
!LO:TX:a:i:t=Bb-major
(4f
=9
2b-
4cc
=10
2dd
4ee-
=11
2.ff
=12
2.ff)
=13
(4ff
4dd
12ee-L
12dd
12ccJ
=14
4cc
4dd
12ee-L
12dd
12ccJ
=15
2.dd
=16
2.dd)
!!!End-Modulation
!!!Begin-Modulation
*B-:
!LO:TX:a:i:t=Bb-major
=21
4cc
4ff
4een
=22
4.ff
8ee-X
8ddL
8ccJ
=23
4b-
4cc
8ddL
8ccJ
=24
2.b-
!!!End-Modulation
!!!Begin-Modulation
*B-:
!LO:TX:a:i:t=Bb-major
8fL
8b-J
=34!|:
2.dd
=35
2dd
8ccL
8b-J
=36
4cc
4dd
4dd
=37
2.dd
=38
4f
4ff
4ee-
=39
2dd
8ccL
8b-J
=40
4cc
4dd
4dd
=41
2dd
4cc
!!!End-Modulation
!!!Begin-Modulation
*B-:
!LO:TX:a:i:t=Bb-major
8fL
8b-J
2.dd
=35
2dd
8ccL
8b-J
=36
4cc
4dd
4dd
=37
2.dd
=38
4f
4ff
4ee-
=39
2dd
8ccL
8b-J
=40
4cc
4dd
4dd
=41
2dd
4cc
!!!End-Modulation
!!!Begin-Modulation
*-
